X:103
T:Untitled. JBs.103
S:Jas.Blackshaw MS, 1837, N.Shropshire
A:North Shropshire
Z:T. Weatherall 2006
M:2/4
L:1/8
Q:1/4=100
R:Set Tune
K:G
B|B3c|A2zc|c3d|B2zd|ggff|ggaa|ffee|d3c|!
B3c|A3c|c3d|B2zd|ggdd|e3a|ggff|â€not dotted in MSâ€g3:|!
|:d|g3d|ee ze|a3e|ff zdâ€™|câ€™badâ€™|câ€™badâ€™|câ€™bag|fedc|BdBG|!
d3d|g3d|ee ze|a3e|ff zdâ€™|câ€™bag|fedg|a2f2|â€not dotted in MSâ€g3:|

